X: 1318
T: The Dancer's Delight
R:Reel
N:Collected by J. O'Neill
B:O'Neill's 1318
Z:Transcribed by Trish O'Neil
M:C|
L:1/8
K:A
e>A (3AAA (eA)ce|faec BABc|e>A (3AAA (eA)ce|1faec BAFE:|2faecB2A2||
Acega2(ag)|faec BAFE|Acega2(ae)|gbeg afec|
Acega2(ae)|faec BAFE|Acega2(ge)|fefg agaf|]


